icons/gd-plus-logo.svg

<svg xmlns="http://www.w3.org/2000/svg" aria-label="Golf Digest Plus" role="img" viewBox="0 0 3725 710">
    <title>Golf Digest Plus</title>
    <path d="M2211.19 404.05v-5.852c-12.43-2.915-24.86-35.093-24.86-106.758 0-72.372 12.43-105.256 24.86-108.215v-5.83c-65.05 2.208-151.27 36.572-151.27 114.045s86.22 109.695 151.27 112.61Zm90.61 35.822h-157.85c-14.61 0-23.39-5.853-23.39-18.287 0-10.225 5.85-16.055 11.69-20.45l-3.64-4.417c-31.43 14.62-75.27 41.674-75.27 90.658 0 59.231 39.45 86.285 94.28 86.285h143.23c29.93 0 48.21 8.834 48.21 35.093 0 44.589-59.93 65.061-113.99 71.643v6.625c116.17-7.31 200.87-62.875 200.87-138.184.09-78.975-45.23-108.966-124.14-108.966Zm95.73-213.494a46.575 46.575 0 0 0 33.11-13.653 46.693 46.693 0 0 0 10.14-15.196 46.7 46.7 0 0 0 3.52-17.926 47.106 47.106 0 0 0-46.77-46.798 46.45 46.45 0 0 0-32.69 13.874 46.432 46.432 0 0 0-13.35 32.924 46.03 46.03 0 0 0 3.28 17.854 45.997 45.997 0 0 0 9.94 15.193 45.88 45.88 0 0 0 15.03 10.167 45.92 45.92 0 0 0 17.79 3.561Z" fill="#8A8A81"></path>
    <path d="M2119.12 629.977c0-24.138 11.04-37.279 18.28-43.86l-1.48-3.666c-61.39 5.123-93.52 19.744-93.52 48.255 0 38.03 53.32 55.565 162.21 56.294v-6.625c-49.71-2.209-85.49-13.848-85.49-50.398Zm257.95-338.537c0-77.473-85.51-111.108-149.81-114.045v5.852c12.42 2.937 23.4 35.821 23.4 108.215 0 71.665-11.04 103.799-23.4 106.758v5.852c64.3-2.937 149.81-35.092 149.81-112.632Z" fill="#8A8A81"></path>
    <path d="M352.871 514.452a134.759 134.759 0 0 1-38.717 11.042v10.226c87.675-2.209 149.06-16.807 188.527-34.364V327.284h-149.81v187.168ZM490.96 175.208V77.24c-31.41-8.834-82.553-14.62-136.633-15.349v10.226c55.559 26.325 95.003 56.293 136.633 103.091ZM224.25 298.772c0-138.184 41.652-211.307 101.537-226.655V62.002C162.136 72.845 54 159.175 54 298.772c0 135.976 95.709 229.682 240.399 236.881v-10.225c-52.6-9.497-70.149-94.324-70.149-226.656Zm498.412-121.377v8.038a37.525 37.525 0 0 1 18.277 12.434c16.069 20.473 19.711 61.418 19.711 157.928 0 97.173-3.642 138.184-19.711 158.657-4.415 5.124-12.427 11.042-18.277 12.434v8.039c102.288-7.31 186.342-74.581 186.342-179.13 0-104.549-84.143-171.068-186.342-178.4ZM517.316 355.729c0 104.549 84.761 171.819 187.07 179.129v-7.972c-6.622-1.48-13.884-7.31-18.277-12.434-16.797-20.473-19.711-61.418-19.711-158.657 0-96.51 2.914-137.455 19.711-157.928a34.53 34.53 0 0 1 18.277-12.434v-8.038c-102.309 7.332-187.07 73.851-187.07 178.334Zm406.742 173.343h143.232V26.048L924.058 39.21v489.862Zm344.472-430.63c0-43.86 32.87-60.69 59.2-64.355v-8.04c-92.71 5.124-202.43 25.597-202.43 125.022v32.178h-43.15v48.984h43.13v296.841h143.25V232.231h67.94v-48.984h-67.94V98.441Z" fill="#000"></path>
    <path d="M1355.88 37.708a53.73 53.73 0 0 0-29.88 9.056 53.82 53.82 0 0 0-19.82 24.14 53.87 53.87 0 0 0-3.07 31.085 53.93 53.93 0 0 0 14.71 27.551 53.763 53.763 0 0 0 58.61 11.672 53.797 53.797 0 0 0 33.19-49.705 53.808 53.808 0 0 0-15.74-38.034 53.754 53.754 0 0 0-38-15.765Z" fill="#000"></path>
    <path d="M1590.18 68.45h-165.15v460.622h165.15V68.45Zm25.56 0v11.043c65.05 5.852 95.73 51.192 95.73 219.346 0 160.843-32.13 214.95-94.91 220.074v10.225c164.42-2.208 265.25-79.682 265.25-230.299-.06-164.576-104.56-228.18-266.07-230.389Zm280.13 460.622h142.51V181.789l-142.51 13.163v334.12Z" fill="#8A8A81"></path>
    <path d="M1967.1 23a71.71 71.71 0 0 0-66.2 44.335 71.8 71.8 0 0 0-4.06 41.449 71.715 71.715 0 0 0 56.35 56.346 71.664 71.664 0 0 0 41.42-4.085 71.738 71.738 0 0 0 32.18-26.418 71.835 71.835 0 0 0 12.1-39.852c0-9.43-1.86-18.768-5.46-27.48A71.777 71.777 0 0 0 2017.86 44a71.635 71.635 0 0 0-23.29-15.556A71.667 71.667 0 0 0 1967.1 23Z" fill="#ED3E49"></path>
    <path d="M3257.32 466.925c-37.28 0-54.8-15.348-54.8-57.773V232.96h90.5v-49.713h-90.5l3.33-126.48-145.84 50.442v76.038h-44.56v49.713h43.86v189.376c0 81.869 47.47 112.633 114.78 112.633 65.05 0 108.15-30.72 127.87-66.52v-11.042c-7.27 4.329-29.19 9.518-44.64 9.518ZM2950.2 300.959l-62.12-29.152c-25.58-11.705-40.19-23.388-40.19-48.255 0-27.054 21.19-35.844 39.47-38.03v-8.127c-85.52 5.123-146.17 61.417-146.17 124.292 0 59.961 38.01 92.138 78.93 111.131l44.57 20.472c37.28 17.536 49.71 29.97 49.71 51.922 0 26.325-19.01 38.008-42.39 41.674v8.039c103.75-5.124 147.61-51.9 147.61-130.875 0-49.712-31.43-85.556-69.42-103.091Zm-203.16 131.603v88.471c26.31 7.31 73.08 13.251 108.16 13.891v-8.038c-32.17-15.349-72.34-55.588-108.16-94.324Zm252.84-162.964v-77.517c-21.91-6.626-62.09-14.62-96.45-14.62v8.039c35.07 13.096 66.5 42.358 96.45 84.098Zm-462.52 39.422c0-97.99 9.49-118.463 29.96-123.675v-7.95c-99.33 8.038-174.65 81.161-174.65 177.671 0 91.387 54.06 179.859 176.83 179.859 106.68 0 146.88-75.309 158.58-116.255v-12.411c-20.47 15.327-54.81 25.574-92.71 25.574-65.87 0-98.01-43.86-98.01-122.813Z" fill="#8A8A81"></path>
    <path d="m2603.96 306.06-48.23 7.332v9.497H2726c0-64.333-39.47-140.371-144.69-145.494v8.038c13.82 3.666 22.65 45.34 22.65 120.627Z" fill="#8A8A81"></path>
    <path d="M3532 184h50v230h-50z" fill="#ED3E49"></path>
    <path d="M3440 321v-50h230v50z" fill="#ED3E49"></path>
</svg>

<svg width="3725" height="710" viewBox="0 0 3725 710" fill="none" xmlns="http://www.w3.org/2000/svg"
                 role="img" aria-label="Golf Digest Plus">
                <title>Golf Digest Plus Logo</title>
                <path d="M2211.19 404.05V398.198C2198.76 395.283 2186.33 363.105 2186.33 291.44C2186.33 219.068 2198.76 186.184 2211.19 183.225V177.395C2146.14 179.603 2059.92 213.967 2059.92 291.44C2059.92 368.913 2146.14 401.135 2211.19 404.05Z"
                      fill="#8A8A81"></path>
                <path d="M2301.8 439.872H2143.95C2129.34 439.872 2120.56 434.019 2120.56 421.585C2120.56 411.36 2126.41 405.53 2132.25 401.135L2128.61 396.718C2097.18 411.338 2053.34 438.392 2053.34 487.376C2053.34 546.607 2092.79 573.661 2147.62 573.661H2290.85C2320.78 573.661 2339.06 582.495 2339.06 608.754C2339.06 653.343 2279.13 673.815 2225.07 680.397V687.022C2341.24 679.712 2425.94 624.147 2425.94 548.838C2426.03 469.863 2380.71 439.872 2301.8 439.872Z"
                      fill="#8A8A81"></path>
                <path d="M2397.53 226.378C2403.68 226.399 2409.77 225.203 2415.45 222.86C2421.13 220.517 2426.29 217.072 2430.64 212.725C2434.99 208.378 2438.43 203.213 2440.78 197.529C2443.12 191.845 2444.32 185.752 2444.3 179.603C2444.22 167.218 2439.26 155.365 2430.51 146.608C2421.75 137.85 2409.91 132.892 2397.53 132.805C2385.23 132.916 2373.47 137.906 2364.84 146.679C2356.2 155.452 2351.4 167.292 2351.49 179.603C2351.39 185.714 2352.5 191.783 2354.77 197.457C2357.04 203.131 2360.42 208.295 2364.71 212.65C2368.99 217.004 2374.1 220.46 2379.74 222.817C2385.37 225.175 2391.42 226.385 2397.53 226.378Z"
                      fill="#8A8A81"></path>
                <path d="M2119.12 629.977C2119.12 605.839 2130.16 592.698 2137.4 586.117L2135.92 582.451C2074.53 587.574 2042.4 602.195 2042.4 630.706C2042.4 668.736 2095.72 686.271 2204.61 687V680.375C2154.9 678.166 2119.12 666.527 2119.12 629.977Z"
                      fill="#8A8A81"></path>
                <path d="M2377.07 291.44C2377.07 213.967 2291.56 180.332 2227.26 177.395V183.247C2239.68 186.184 2250.66 219.068 2250.66 291.462C2250.66 363.127 2239.62 395.261 2227.26 398.22V404.072C2291.56 401.135 2377.07 368.98 2377.07 291.44Z"
                      fill="#8A8A81"></path>
                <path d="M352.871 514.452C340.59 520.051 327.539 523.773 314.154 525.494V535.72C401.829 533.511 463.214 518.913 502.681 501.356V327.284H352.871V514.452Z"
                      fill="black"></path>
                <path d="M490.96 175.208V77.2401C459.55 68.4062 408.407 62.62 354.327 61.8912V72.1165C409.886 98.4415 449.33 128.41 490.96 175.208Z"
                      fill="black"></path>
                <path d="M224.25 298.772C224.25 160.588 265.902 87.4654 325.787 72.1165V62.0016C162.136 72.8453 54 159.175 54 298.772C54 434.748 149.709 528.454 294.399 535.653V525.428C241.799 515.931 224.25 431.104 224.25 298.772Z"
                      fill="black"></path>
                <path d="M722.662 177.395V185.433C729.864 187.648 736.233 191.981 740.939 197.867C757.008 218.34 760.65 259.285 760.65 355.795C760.65 452.968 757.008 493.979 740.939 514.452C736.524 519.576 728.512 525.494 722.662 526.886V534.925C824.95 527.615 909.004 460.344 909.004 355.795C909.004 251.246 824.861 184.727 722.662 177.395Z"
                      fill="black"></path>
                <path d="M517.316 355.729C517.316 460.278 602.077 527.548 704.386 534.858V526.886C697.764 525.406 690.502 519.576 686.109 514.452C669.312 493.979 666.398 453.034 666.398 355.795C666.398 259.285 669.312 218.34 686.109 197.867C690.675 191.831 697.097 187.462 704.386 185.433V177.395C602.077 184.727 517.316 251.246 517.316 355.729Z"
                      fill="black"></path>
                <path d="M924.058 529.072H1067.29V26.0477L924.058 39.2102V529.072Z" fill="black"></path>
                <path d="M1268.53 98.4415C1268.53 54.5812 1301.4 37.7526 1327.73 34.0866V26.0477C1235.02 31.1714 1125.3 51.644 1125.3 151.069V183.247H1082.15V232.231H1125.28V529.072H1268.53V232.231H1336.47V183.247H1268.53V98.4415Z"
                      fill="black"></path>
                <path d="M1355.88 37.7084C1345.24 37.7041 1334.84 40.8556 1326 46.7644C1317.15 52.6732 1310.26 61.0738 1306.18 70.9038C1302.11 80.7338 1301.04 91.5516 1303.11 101.989C1305.19 112.426 1310.31 122.014 1317.82 129.54C1325.34 137.066 1334.92 142.192 1345.35 144.27C1355.79 146.348 1366.6 145.284 1376.43 141.212C1386.25 137.141 1394.65 130.246 1400.56 121.398C1406.47 112.55 1409.62 102.148 1409.62 91.5069C1409.62 77.2425 1403.96 63.562 1393.88 53.4734C1383.8 43.3849 1370.13 37.7143 1355.88 37.7084Z"
                      fill="black"></path>
                <path d="M1590.18 68.4504H1425.03V529.072H1590.18V68.4504Z" fill="#8A8A81"></path>
                <path d="M1615.74 68.4504V79.4928C1680.79 85.3452 1711.47 130.685 1711.47 298.839C1711.47 459.682 1679.34 513.789 1616.56 518.913V529.138C1780.98 526.93 1881.81 449.456 1881.81 298.839C1881.75 134.263 1777.25 70.6589 1615.74 68.4504Z"
                      fill="#8A8A81"></path>
                <path d="M1895.87 529.072H2038.38V181.789L1895.87 194.952V529.072Z" fill="#8A8A81"></path>
                <path d="M1967.1 23C1952.92 23.0131 1939.07 27.232 1927.28 35.1233C1915.5 43.0147 1906.31 54.2243 1900.9 67.3353C1895.48 80.4464 1894.07 94.8704 1896.84 108.784C1899.61 122.698 1906.44 135.477 1916.47 145.506C1926.5 155.535 1939.28 162.364 1953.19 165.13C1967.1 167.896 1981.51 166.474 1994.61 161.045C2007.71 155.615 2018.91 146.422 2026.79 134.627C2034.67 122.831 2038.88 108.963 2038.89 94.7755C2038.89 85.3452 2037.03 76.0069 2033.43 67.2945C2029.82 58.5822 2024.53 50.6666 2017.86 44.0005C2011.2 37.3343 2003.28 32.0484 1994.57 28.445C1985.86 24.8416 1976.53 22.9913 1967.1 23Z"
                      fill="#ED3E49"></path>
                <path d="M3257.32 466.925C3220.04 466.925 3202.52 451.577 3202.52 409.152V232.96H3293.02V183.247H3202.52L3205.85 56.7676L3060.01 107.209V183.247H3015.45V232.96H3059.31V422.336C3059.31 504.205 3106.78 534.969 3174.09 534.969C3239.14 534.969 3282.24 504.249 3301.96 468.449V457.407C3294.69 461.736 3272.77 466.925 3257.32 466.925Z"
                      fill="#8A8A81"></path>
                <path d="M2950.2 300.959L2888.08 271.807C2862.5 260.102 2847.89 248.419 2847.89 223.552C2847.89 196.498 2869.08 187.708 2887.36 185.522V177.395C2801.84 182.518 2741.19 238.812 2741.19 301.687C2741.19 361.648 2779.2 393.825 2820.12 412.818L2864.69 433.29C2901.97 450.826 2914.4 463.26 2914.4 485.212C2914.4 511.537 2895.39 523.22 2872.01 526.886V534.925C2975.76 529.801 3019.62 483.025 3019.62 404.05C3019.62 354.338 2988.19 318.494 2950.2 300.959Z"
                      fill="#8A8A81"></path>
                <path d="M2747.04 432.562V521.033C2773.35 528.343 2820.12 534.284 2855.2 534.924V526.886C2823.03 511.537 2782.86 471.298 2747.04 432.562Z"
                      fill="#8A8A81"></path>
                <path d="M2999.88 269.598V192.081C2977.97 185.455 2937.79 177.461 2903.43 177.461V185.5C2938.5 198.596 2969.93 227.858 2999.88 269.598Z"
                      fill="#8A8A81"></path>
                <path d="M2537.36 309.02C2537.36 211.03 2546.85 190.557 2567.32 185.345V177.395C2467.99 185.433 2392.67 258.556 2392.67 355.066C2392.67 446.453 2446.73 534.925 2569.5 534.925C2676.18 534.925 2716.38 459.616 2728.08 418.67V406.259C2707.61 421.586 2673.27 431.833 2635.37 431.833C2569.5 431.833 2537.36 387.973 2537.36 309.02Z"
                      fill="#8A8A81"></path>
                <path d="M2603.96 306.06L2555.73 313.392V322.889H2726C2726 258.556 2686.53 182.518 2581.31 177.395V185.433C2595.13 189.099 2603.96 230.773 2603.96 306.06Z"
                      fill="#8A8A81"></path>
                <rect x="3532" y="184" width="50" height="230" fill="#ED3E49"></rect>
                <rect x="3440" y="321" width="50" height="230" transform="rotate(-90 3440 321)" fill="#ED3E49"></rect>
                <defs>
                    <clipPath id="clip0_10_256">
                        <rect width="3248" height="664" fill="white" transform="translate(54 23)"></rect>
                    </clipPath>
                </defs>
            </svg>
